app/[lang]/(home)/(new-home)/assets/stacks-appicons/rust.svg

<svg width="16" height="16" viewBox="0 0 16 16" fill="none" xmlns="http://www.w3.org/2000/svg">
<g clip-path="url(#clip0_98_835)">
<path d="M15.8913 7.80472L15.2094 7.38254C15.2041 7.32004 15.1988 7.25972 15.1922 7.19879L15.7772 6.65191C15.8057 6.62522 15.827 6.59168 15.839 6.55448C15.8509 6.51727 15.8532 6.47763 15.8456 6.4393C15.8379 6.40097 15.8206 6.36522 15.7953 6.33544C15.77 6.30566 15.7375 6.28283 15.7009 6.2691L14.9509 5.98785C14.9341 5.92911 14.9172 5.86973 14.8988 5.81161L15.3675 5.16067C15.3903 5.1289 15.4046 5.09184 15.4091 5.053C15.4136 5.01415 15.408 4.97481 15.393 4.93869C15.378 4.90258 15.3541 4.87089 15.3234 4.84663C15.2928 4.82237 15.2564 4.80633 15.2178 4.80005L14.4234 4.67036C14.3953 4.6163 14.3675 4.56255 14.3381 4.50942L14.6719 3.77755C14.6881 3.74194 14.6949 3.70277 14.6918 3.66377C14.6886 3.62477 14.6755 3.58723 14.6537 3.5547C14.632 3.52218 14.6023 3.49575 14.5674 3.47793C14.5326 3.46011 14.4938 3.45148 14.4547 3.45287L13.6478 3.4813C13.6105 3.43505 13.5729 3.38922 13.535 3.3438L13.7188 2.55756C13.7276 2.51948 13.7267 2.47976 13.7159 2.44215C13.7052 2.40455 13.6851 2.37031 13.6574 2.34266C13.6298 2.315 13.5955 2.29486 13.5579 2.28413C13.5203 2.27339 13.4806 2.27242 13.4425 2.28131L12.6563 2.46662C12.6111 2.4285 12.5652 2.39089 12.5188 2.35381L12.5472 1.54694C12.5489 1.5077 12.5404 1.4687 12.5227 1.43364C12.505 1.39859 12.4786 1.36867 12.4461 1.34673C12.4135 1.32478 12.3758 1.31156 12.3367 1.30831C12.2976 1.30507 12.2583 1.31191 12.2225 1.32819L11.4906 1.6635C11.4375 1.63412 11.3835 1.606 11.3297 1.57819L11.2 0.783815C11.1937 0.745222 11.1777 0.708872 11.1534 0.678208C11.1292 0.647545 11.0975 0.623583 11.0614 0.608593C11.0253 0.593603 10.9859 0.58808 10.9471 0.592549C10.9082 0.597018 10.8712 0.611329 10.8394 0.634128L10.1875 1.10194C10.1294 1.0835 10.0703 1.06663 10.0113 1.04975L9.73003 0.299755C9.7163 0.263161 9.69347 0.230674 9.66369 0.205368C9.63391 0.180062 9.59816 0.162774 9.55983 0.15514C9.5215 0.147505 9.48186 0.149777 9.44466 0.16174C9.40745 0.173703 9.37391 0.194962 9.34722 0.223505L8.80034 0.808502C8.73941 0.80194 8.67816 0.796627 8.61659 0.791315L8.19535 0.108818C8.17476 0.0755452 8.14601 0.0480845 8.11182 0.0290403C8.07764 0.00999614 8.03916 0 8.00003 0C7.96091 0 7.92243 0.00999614 7.88824 0.0290403C7.85406 0.0480845 7.82531 0.0755452 7.80472 0.108818L7.38254 0.79069C7.32004 0.796002 7.25972 0.801315 7.19879 0.807877L6.65191 0.22288C6.62522 0.194337 6.59168 0.173078 6.55448 0.161115C6.51727 0.149152 6.47763 0.14688 6.4393 0.154515C6.40097 0.162149 6.36522 0.179437 6.33544 0.204743C6.30566 0.230049 6.28283 0.262536 6.2691 0.299129L5.98785 1.04913C5.92879 1.06631 5.86942 1.08288 5.81098 1.10163L5.16036 0.632878C5.12859 0.610079 5.09153 0.595768 5.05268 0.591299C5.01384 0.58683 4.9745 0.592353 4.93838 0.607343C4.90227 0.622333 4.87058 0.646295 4.84632 0.676958C4.82205 0.707622 4.80602 0.743972 4.79974 0.782565L4.67005 1.57662C4.61599 1.60475 4.56224 1.63256 4.5088 1.66194L3.77755 1.32975C3.74181 1.31347 3.7025 1.30663 3.66336 1.30988C3.62423 1.31312 3.58658 1.32635 3.55401 1.34829C3.52144 1.37023 3.49504 1.40016 3.47734 1.43521C3.45963 1.47026 3.4512 1.50926 3.45287 1.5485L3.48162 2.35506C3.43505 2.39225 3.38787 2.42975 3.34349 2.46787L2.55756 2.28131C2.51948 2.27242 2.47976 2.27339 2.44215 2.28413C2.40455 2.29486 2.37031 2.315 2.34266 2.34266C2.315 2.37031 2.29486 2.40455 2.28413 2.44215C2.27339 2.47976 2.27242 2.51948 2.28131 2.55756L2.46662 3.3438C2.42818 3.38912 2.39068 3.43537 2.3535 3.48162L1.54694 3.45318C1.50786 3.452 1.46912 3.46072 1.43431 3.47853C1.39951 3.49635 1.36978 3.52267 1.34787 3.55505C1.32618 3.5876 1.31315 3.62515 1.31004 3.66415C1.30692 3.70314 1.31381 3.74228 1.33006 3.77786L1.66319 4.50942C1.63381 4.56255 1.606 4.61661 1.57787 4.67067L0.783815 4.80005C0.745222 4.80633 0.708872 4.82237 0.678208 4.84663C0.647545 4.87089 0.623583 4.90258 0.608593 4.93869C0.593603 4.97481 0.58808 5.01415 0.592549 5.053C0.597018 5.09184 0.611329 5.1289 0.634128 5.16067L1.10288 5.81129C1.08444 5.86973 1.06756 5.92911 1.05038 5.98817L0.300379 6.26942C0.263786 6.28314 0.231299 6.30597 0.205993 6.33575C0.180687 6.36554 0.163399 6.40128 0.155765 6.43961C0.14813 6.47794 0.150402 6.51758 0.162365 6.55479C0.174328 6.59199 0.195587 6.62553 0.22413 6.65223L0.809127 7.1991C0.802565 7.26004 0.797252 7.32129 0.79194 7.38285L0.108818 7.80472C0.0755452 7.82531 0.0480845 7.85406 0.0290403 7.88824C0.00999614 7.92243 0 7.96091 0 8.00003C0 8.03916 0.00999614 8.07764 0.0290403 8.11182C0.0480845 8.14601 0.0755452 8.17476 0.108818 8.19535L0.79069 8.61753C0.796002 8.68003 0.801315 8.74003 0.807877 8.80097L0.22288 9.34784C0.194337 9.37454 0.173078 9.40807 0.161115 9.44528C0.149152 9.48249 0.14688 9.52213 0.154515 9.56046C0.162149 9.59879 0.179437 9.63453 0.204743 9.66432C0.230049 9.6941 0.262536 9.71693 0.29913 9.73065L1.04913 10.0119C1.06631 10.071 1.08288 10.13 1.10163 10.1885L0.632878 10.8394C0.610079 10.8712 0.595768 10.9082 0.591299 10.9471C0.58683 10.9859 0.592353 11.0253 0.607343 11.0614C0.622333 11.0975 0.646295 11.1292 0.676958 11.1534C0.707622 11.1777 0.743972 11.1937 0.782565 11.2L1.57694 11.3297C1.60506 11.3835 1.63287 11.4375 1.66225 11.4903L1.33006 12.2225C1.31381 12.2581 1.30692 12.2972 1.31004 12.3362C1.31315 12.3752 1.32618 12.4128 1.34787 12.4453C1.36913 12.4783 1.39874 12.5052 1.4337 12.523C1.46866 12.5409 1.50772 12.5493 1.54694 12.5472L2.35412 12.5188C2.391 12.565 2.4285 12.6108 2.46662 12.6563L2.28131 13.4425C2.27242 13.4806 2.27339 13.5203 2.28413 13.5579C2.29486 13.5955 2.315 13.6298 2.34266 13.6574C2.37031 13.6851 2.40455 13.7052 2.44215 13.7159C2.47976 13.7267 2.51948 13.7276 2.55756 13.7188L3.3438 13.5334C3.38922 13.5716 3.43516 13.6092 3.48162 13.6463L3.45287 14.4531C3.45148 14.4922 3.46011 14.531 3.47793 14.5659C3.49575 14.6007 3.52218 14.6304 3.5547 14.6522C3.58723 14.6739 3.62477 14.687 3.66377 14.6902C3.70277 14.6934 3.74194 14.6865 3.77755 14.6703L4.50974 14.3366C4.56255 14.3659 4.61661 14.3938 4.67036 14.4219L4.80005 15.2163C4.8063 15.2549 4.82232 15.2912 4.84658 15.3219C4.87085 15.3526 4.90256 15.3766 4.9387 15.3915C4.97484 15.4065 5.0142 15.412 5.05305 15.4074C5.0919 15.4029 5.12895 15.3885 5.16067 15.3656L5.81161 14.8969C5.86973 14.9156 5.92911 14.9322 5.98817 14.9494L6.26942 15.6994C6.28321 15.7359 6.30607 15.7683 6.33586 15.7936C6.36564 15.8188 6.40137 15.8361 6.43967 15.8437C6.47796 15.8513 6.51757 15.8491 6.55476 15.8372C6.59195 15.8253 6.62549 15.8041 6.65223 15.7756L7.1991 15.1906C7.26004 15.1972 7.3216 15.2025 7.38285 15.2078L7.80504 15.8897C7.82563 15.923 7.85438 15.9504 7.88856 15.9695C7.92274 15.9885 7.96122 15.9985 8.00035 15.9985C8.03947 15.9985 8.07796 15.9885 8.11214 15.9695C8.14632 15.9504 8.17507 15.923 8.19566 15.8897L8.61784 15.2078C8.68034 15.2025 8.74066 15.1972 8.80159 15.1903L9.34847 15.7756C9.3752 15.8041 9.40875 15.8253 9.44593 15.8372C9.48312 15.8491 9.52273 15.8513 9.56103 15.8437C9.59932 15.8361 9.63505 15.8188 9.66483 15.7936C9.69462 15.7683 9.71749 15.7359 9.73128 15.6994L10.0125 14.9494C10.0716 14.9322 10.1306 14.9156 10.1891 14.8969L10.8397 15.3656C10.8714 15.3885 10.9085 15.4029 10.9473 15.4074C10.9862 15.412 11.0255 15.4065 11.0617 15.3915C11.0978 15.3766 11.1295 15.3526 11.1538 15.3219C11.1781 15.2912 11.1941 15.2549 11.2003 15.2163L11.33 14.4219C11.3838 14.3938 11.4378 14.3659 11.491 14.3366L12.2228 14.6703C12.2584 14.6865 12.2976 14.6934 12.3366 14.6902C12.3756 14.687 12.4132 14.6739 12.4457 14.6522C12.4782 14.6304 12.5046 14.6007 12.5224 14.5659C12.5403 14.531 12.5489 14.4922 12.5475 14.4531L12.5191 13.6463C12.5653 13.609 12.6112 13.5714 12.6566 13.5334L13.4425 13.7188C13.4806 13.7276 13.5203 13.7267 13.5579 13.7159C13.5955 13.7052 13.6298 13.6851 13.6574 13.6574C13.6851 13.6298 13.7052 13.5955 13.7159 13.5579C13.7267 13.5203 13.7276 13.4806 13.7188 13.4425L13.5334 12.6563C13.5716 12.6111 13.6092 12.5652 13.6463 12.5188L14.4531 12.5472C14.4923 12.549 14.5312 12.5405 14.5661 12.5226C14.6011 12.5048 14.6307 12.4781 14.6522 12.4453C14.6739 12.4128 14.687 12.3753 14.6902 12.3363C14.6934 12.2973 14.6865 12.2581 14.6703 12.2225L14.3366 11.4906C14.3659 11.4375 14.3938 11.3835 14.4219 11.3297L15.2163 11.2C15.2548 11.1937 15.2912 11.1777 15.3219 11.1534C15.3525 11.1292 15.3765 11.0975 15.3915 11.0614C15.4065 11.0253 15.412 10.9859 15.4075 10.9471C15.4031 10.9082 15.3887 10.8712 15.3659 10.8394L14.8972 10.1885C14.9156 10.13 14.9325 10.071 14.9494 10.0119L15.6994 9.73065C15.736 9.71693 15.7685 9.6941 15.7938 9.66432C15.8191 9.63453 15.8364 9.59879 15.844 9.56046C15.8516 9.52213 15.8494 9.48249 15.8374 9.44528C15.8254 9.40807 15.8042 9.37454 15.7756 9.34784L15.1906 8.80097C15.1972 8.74003 15.2025 8.67878 15.2078 8.61753L15.8897 8.19535C15.923 8.17476 15.9504 8.14601 15.9695 8.11182C15.9885 8.07764 15.9985 8.03916 15.9985 8.00003C15.9985 7.96091 15.9885 7.92243 15.9695 7.88824C15.9504 7.85406 15.923 7.82531 15.8897 7.80472H15.8913ZM11.1725 11.8385C11.0598 11.8143 10.9421 11.8358 10.8453 11.8984C10.7485 11.961 10.6805 12.0595 10.6563 12.1722L10.4175 13.2869C9.64937 13.6349 8.81517 13.8129 7.97188 13.8089C7.1286 13.8049 6.29612 13.619 5.53129 13.2638L5.29255 12.1494C5.2807 12.0937 5.258 12.0409 5.22574 11.994C5.19347 11.947 5.15228 11.9069 5.10451 11.8759C5.05674 11.8449 5.00334 11.8237 4.94734 11.8133C4.89135 11.803 4.83386 11.8038 4.77817 11.8156L3.79349 12.0269C3.61085 11.8384 3.4411 11.6378 3.28537 11.4266H8.07191C8.12566 11.4266 8.16222 11.4175 8.16222 11.3669V9.67346C8.16222 9.6244 8.12566 9.61378 8.07191 9.61378H6.67098L6.67254 8.54034H8.18753C8.32535 8.54034 8.9269 8.58034 9.11847 9.34878C9.17815 9.58472 9.31128 10.3531 9.40159 10.5988C9.4919 10.8744 9.85784 11.4256 10.2485 11.4256H12.7188C12.5532 11.6475 12.3721 11.8573 12.1769 12.0535L11.1725 11.8385ZM11.9778 12.9163C11.9778 13.0104 11.9499 13.1024 11.8977 13.1807C11.8454 13.259 11.7711 13.32 11.6842 13.3561C11.5973 13.3922 11.5016 13.4017 11.4092 13.3835C11.3169 13.3652 11.232 13.32 11.1654 13.2536C11.0987 13.1871 11.0532 13.1024 11.0347 13.0101C11.0161 12.9178 11.0253 12.8221 11.0611 12.7351C11.0969 12.648 11.1577 12.5736 11.2359 12.521C11.314 12.4685 11.4059 12.4403 11.5 12.44H11.5138C11.6377 12.4435 11.7554 12.4952 11.8418 12.5842C11.9281 12.6731 11.9764 12.7923 11.9763 12.9163H11.9778ZM4.92723 12.895C4.92717 12.9892 4.8992 13.0812 4.84684 13.1595C4.79449 13.2378 4.7201 13.2987 4.63309 13.3348C4.54608 13.3708 4.45035 13.3802 4.358 13.3618C4.26564 13.3434 4.18081 13.298 4.11423 13.2315C4.04764 13.1649 4.00229 13.08 3.98391 12.9877C3.96552 12.8953 3.97492 12.7996 4.01093 12.7126C4.04694 12.6256 4.10793 12.5512 4.1862 12.4988C4.26447 12.4465 4.35651 12.4185 4.45067 12.4185H4.46474C4.5884 12.4225 4.70564 12.4745 4.79166 12.5634C4.87768 12.6524 4.92574 12.7713 4.92567 12.895H4.92723ZM2.17412 7.31722L3.20005 6.86098C3.25218 6.83788 3.29924 6.80474 3.33854 6.76344C3.37785 6.72215 3.40862 6.67351 3.42911 6.62031C3.4496 6.56711 3.45941 6.51039 3.45796 6.4534C3.45651 6.39641 3.44384 6.34026 3.42068 6.28817L3.20912 5.81254H4.03911V9.55409H2.36412C2.15732 8.82766 2.09281 8.06812 2.17412 7.31722ZM1.82225 6.19035C1.82221 6.12781 1.83448 6.06587 1.85838 6.00808C1.88228 5.95028 1.91732 5.89776 1.96152 5.8535C2.00571 5.80925 2.05819 5.77414 2.11596 5.75017C2.17372 5.72619 2.23564 5.71383 2.29818 5.71379H2.31256C2.40613 5.71644 2.49686 5.7466 2.57339 5.80051C2.64992 5.85442 2.70886 5.92969 2.74286 6.01691C2.77685 6.10413 2.78439 6.19944 2.76452 6.29092C2.74466 6.3824 2.69827 6.46599 2.63116 6.53126C2.56405 6.59653 2.4792 6.64057 2.3872 6.65788C2.2952 6.6752 2.20014 6.66501 2.1139 6.62861C2.02766 6.5922 1.95406 6.53118 1.9023 6.45318C1.85054 6.37518 1.82291 6.28365 1.82287 6.19004L1.82225 6.19035ZM6.67098 6.95566L6.67254 5.85192H8.64941C8.75191 5.85192 9.37034 5.96973 9.37034 6.43379C9.37034 6.81785 8.89566 6.95566 8.50534 6.95566H6.67098ZM12.4688 9.58471C12.1625 9.62003 11.8241 9.45597 11.7813 9.2694C11.6006 8.2541 11.3003 8.03816 10.826 7.66316C11.4153 7.28972 12.0278 6.73691 12.0278 5.99879C12.0278 5.2013 11.4813 4.69911 11.1091 4.45255C10.5853 4.1088 10.0066 4.03911 9.85065 4.03911H3.63505C4.4945 3.07885 5.64657 2.42874 6.91285 2.18943L7.64629 2.95818C7.68551 2.99946 7.7325 3.03257 7.78457 3.05562C7.83664 3.07866 7.89275 3.09119 7.94967 3.09246C8.0066 3.09374 8.06322 3.08375 8.11627 3.06307C8.16931 3.04238 8.21775 3.01141 8.25878 2.97193L9.0794 2.19068C9.91535 2.34727 10.7072 2.68396 11.3999 3.17735C12.0927 3.67075 12.6697 4.30903 13.091 5.04786L12.5285 6.31567C12.4827 6.42111 12.4804 6.5403 12.5218 6.64748C12.5633 6.75467 12.6453 6.84123 12.75 6.88848L13.8309 7.36754C13.8646 7.70549 13.8688 8.04573 13.8434 8.38441H13.2409C13.1813 8.38441 13.1569 8.42409 13.1569 8.48222V8.75784C13.1563 9.40628 12.791 9.5494 12.4688 9.58471ZM7.50004 1.88162C7.50028 1.75564 7.55044 1.63489 7.63952 1.5458C7.72861 1.45672 7.84936 1.40656 7.97535 1.40631H7.98941C8.08304 1.40889 8.17383 1.43903 8.25042 1.49294C8.32701 1.54686 8.38601 1.62217 8.42002 1.70944C8.45403 1.79671 8.46156 1.89207 8.44165 1.9836C8.42174 2.07513 8.37529 2.15875 8.3081 2.22401C8.24091 2.28927 8.15596 2.33327 8.0639 2.3505C7.97183 2.36773 7.87672 2.35743 7.79048 2.32089C7.70424 2.28435 7.63068 2.22318 7.57902 2.14505C7.52736 2.06692 7.49989 1.97529 7.50004 1.88162ZM13.6513 6.68754C13.5887 6.68754 13.5268 6.67522 13.469 6.65129C13.4112 6.62735 13.3587 6.59227 13.3145 6.54805C13.2703 6.50383 13.2352 6.45132 13.2113 6.39354C13.1873 6.33576 13.175 6.27383 13.175 6.21129C13.175 6.14875 13.1873 6.08682 13.2113 6.02904C13.2352 5.97126 13.2703 5.91876 13.3145 5.87453C13.3587 5.83031 13.4112 5.79523 13.469 5.7713C13.5268 5.74736 13.5887 5.73504 13.6513 5.73504H13.665C13.7913 5.73687 13.9117 5.78879 13.9998 5.8794C14.0878 5.97 14.1362 6.09186 14.1344 6.21817C14.1326 6.34448 14.0806 6.46489 13.99 6.55291C13.8994 6.64094 13.7776 6.68936 13.6513 6.68754Z" fill="white"/>
</g>
<defs>
<clipPath id="clip0_98_835">
<rect width="16" height="16" fill="white"/>
</clipPath>
</defs>
</svg>

<svg xmlns="http://www.w3.org/2000/svg" fill="none" viewBox="0 0 16 16">
  <g clip-path="url(#a)">
    <path
      fill="#fff"
      d="m15.9 7.8-.7-.42V7.2l.58-.55a.23.23 0 0 0-.08-.38l-.75-.28-.05-.18.47-.65a.23.23 0 0 0-.15-.36l-.8-.13-.08-.16.33-.73a.23.23 0 0 0-.1-.3.23.23 0 0 0-.12-.03l-.8.03-.12-.14.19-.78a.23.23 0 0 0-.28-.28l-.78.19-.14-.12.03-.8a.23.23 0 0 0-.33-.22l-.73.33-.16-.08-.13-.8a.23.23 0 0 0-.36-.15l-.65.47-.18-.05L9.73.3a.23.23 0 0 0-.38-.08L8.8.81a8.7 8.7 0 0 0-.18-.02L8.2.11a.23.23 0 0 0-.4 0l-.42.68-.18.02-.55-.59a.23.23 0 0 0-.38.08l-.28.75-.18.05-.65-.47a.23.23 0 0 0-.36.15l-.13.8-.16.08-.73-.33a.23.23 0 0 0-.33.22l.03.8-.14.12-.78-.19a.23.23 0 0 0-.28.28l.19.78-.12.14-.8-.03a.23.23 0 0 0-.24.21c0 .04 0 .08.02.12l.33.73-.08.16-.8.13a.23.23 0 0 0-.15.36l.47.65-.05.18-.75.28a.23.23 0 0 0-.08.38l.59.55-.02.18-.68.42a.23.23 0 0 0 0 .4l.68.42.02.18-.59.55a.23.23 0 0 0 .08.38l.75.28.05.18-.47.65a.23.23 0 0 0 .15.36l.8.13.08.16-.33.73a.23.23 0 0 0 .22.33l.8-.03.12.14-.19.78a.23.23 0 0 0 .28.28l.78-.19a7 7 0 0 0 .14.12l-.03.8a.23.23 0 0 0 .33.22l.73-.33.16.08.13.8a.23.23 0 0 0 .36.15l.65-.47.18.05.28.75a.23.23 0 0 0 .38.08l.55-.59.18.02.43.68a.23.23 0 0 0 .39 0l.42-.68.18-.02.55.59a.23.23 0 0 0 .38-.08l.28-.75.18-.05.65.47a.23.23 0 0 0 .36-.15l.13-.8.16-.08.73.33a.23.23 0 0 0 .33-.22l-.03-.8.14-.12.78.19a.23.23 0 0 0 .28-.28l-.19-.78.12-.14.8.03a.22.22 0 0 0 .2-.1.23.23 0 0 0 .02-.23l-.33-.73.08-.16.8-.13a.23.23 0 0 0 .15-.36l-.47-.65.05-.18.75-.28a.23.23 0 0 0 .08-.38l-.59-.55.02-.18.68-.42a.23.23 0 0 0 0-.4Zm-4.73 4.04a.43.43 0 0 0-.51.33l-.24 1.12a5.86 5.86 0 0 1-4.89-.03l-.24-1.11a.43.43 0 0 0-.51-.33l-.99.2a5.86 5.86 0 0 1-.5-.6h4.78c.06 0 .1 0 .1-.05v-1.7c0-.05-.04-.06-.1-.06h-1.4V8.54H8.2c.14 0 .74.04.93.8.06.24.2 1.01.28 1.26.1.27.46.83.85.83h2.47c-.17.22-.35.43-.54.62l-1-.21Zm.8 1.08a.48.48 0 1 1-.47-.48h.01a.48.48 0 0 1 .47.48Zm-7.04-.03a.48.48 0 1 1-.48-.47h.01a.48.48 0 0 1 .47.47ZM2.17 7.32l1.03-.46a.43.43 0 0 0 .22-.57l-.21-.48h.83v3.74H2.36a5.86 5.86 0 0 1-.19-2.23Zm-.35-1.13a.48.48 0 0 1 .48-.48h.01a.48.48 0 1 1-.49.48Zm4.85.77v-1.1h1.98c.1 0 .72.11.72.57 0 .39-.47.53-.86.53H6.67Zm5.8 2.62c-.3.04-.65-.12-.69-.31-.18-1.02-.48-1.23-.95-1.6.59-.38 1.2-.93 1.2-1.67 0-.8-.55-1.3-.92-1.55a2.62 2.62 0 0 0-1.26-.41H3.64A5.86 5.86 0 0 1 6.9 2.19l.74.77a.43.43 0 0 0 .6.01l.83-.78a5.86 5.86 0 0 1 4.01 2.86l-.56 1.27a.44.44 0 0 0 .22.57l1.08.48c.03.34.04.68.01 1.01h-.6c-.06 0-.08.04-.08.1v.28c0 .65-.37.79-.7.82ZM7.5 1.88a.48.48 0 0 1 .48-.47.48.48 0 1 1-.48.47Zm6.15 4.8a.48.48 0 1 1 0-.94h.01a.48.48 0 0 1 0 .95Z"
    />
  </g>
  <defs>
    <clipPath id="a"><path fill="#fff" d="M0 0h16v16H0z" /></clipPath>
  </defs>
</svg>
